img/icons/icon-download-blue.svg

<svg fill="none" height="25" viewBox="0 0 25 25" width="25" xmlns="http://www.w3.org/2000/svg"><g stroke="#98bff9" stroke-linecap="round" stroke-linejoin="round" stroke-width="2"><path d="m21.8908 15.6807v4c0 .5304-.2107 1.0391-.5858 1.4142-.3751.375-.8838.5858-1.4142.5858h-13.99999c-.53043 0-1.03914-.2108-1.41422-.5858-.37507-.3751-.58578-.8838-.58578-1.4142v-4"/><path d="m7.89081 10.6807 4.99999 5 5-5"/><path d="m12.8908 15.6807v-12.00004"/></g></svg>

<svg width="25" height="25" viewBox="0 0 25 25" fill="none" xmlns="http://www.w3.org/2000/svg">
<path d="M21.8908 15.6807V19.6807C21.8908 20.2111 21.6801 20.7198 21.305 21.0949C20.9299 21.4699 20.4212 21.6807 19.8908 21.6807H5.89081C5.36038 21.6807 4.85167 21.4699 4.47659 21.0949C4.10152 20.7198 3.89081 20.2111 3.89081 19.6807V15.6807" stroke="#98BFF9" stroke-width="2" stroke-linecap="round" stroke-linejoin="round"/>
<path d="M7.89081 10.6807L12.8908 15.6807L17.8908 10.6807" stroke="#98BFF9" stroke-width="2" stroke-linecap="round" stroke-linejoin="round"/>
<path d="M12.8908 15.6807V3.68066" stroke="#98BFF9" stroke-width="2" stroke-linecap="round" stroke-linejoin="round"/>
</svg>
